src/lib/packages/icons/src/assets/filled/address-book.svg

<svg width="24" height="24" viewBox="0 0 24 24" fill="none" xmlns="http://www.w3.org/2000/svg">
<path d="M20 14.25H19V9.75H20C20.414 9.75 20.75 9.414 20.75 9C20.75 8.586 20.414 8.25 20 8.25H19V6C19 4 18 3 16 3H6C4 3 3 4 3 6V18C3 20 4 21 6 21H16C18 21 19 20 19 18V15.75H20C20.414 15.75 20.75 15.414 20.75 15C20.75 14.586 20.414 14.25 20 14.25ZM11 6.5C12.379 6.5 13.5 7.622 13.5 9C13.5 10.378 12.379 11.5 11 11.5C9.621 11.5 8.5 10.378 8.5 9C8.5 7.622 9.621 6.5 11 6.5ZM15.5 17C15.5 17.276 15.276 17.5 15 17.5H7C6.724 17.5 6.5 17.276 6.5 17V16.36C6.5 14.69 7.74989 13 10.1399 13H11.8611C14.2511 13 15.501 14.69 15.501 16.36V17H15.5Z" fill="currentColor"/>
</svg>

<svg xmlns="http://www.w3.org/2000/svg" width="24" height="24" fill="none"><path fill="currentColor" d="M20 14.25h-1v-4.5h1a.75.75 0 0 0 0-1.5h-1V6c0-2-1-3-3-3H6C4 3 3 4 3 6v12c0 2 1 3 3 3h10c2 0 3-1 3-3v-2.25h1a.75.75 0 0 0 0-1.5ZM11 6.5c1.379 0 2.5 1.122 2.5 2.5s-1.121 2.5-2.5 2.5A2.503 2.503 0 0 1 8.5 9c0-1.378 1.121-2.5 2.5-2.5ZM15.5 17a.5.5 0 0 1-.5.5H7a.5.5 0 0 1-.5-.5v-.64c0-1.67 1.25-3.36 3.64-3.36h1.721c2.39 0 3.64 1.69 3.64 3.36V17H15.5Z"/></svg>
